X:10
T: Girl from Old Bride Street
C: BB
R: jig
Q: 1/8=320
M: 6/8
L: 1/8
K: D
A | "D"DFA dAd | "Bm"FAd fef | "D"agf "G"gfe | "Bm"fdB "G"BAB |
"D"DFA dAd | "Bm"FAd fef | "G"bag "D"fgf | "A"edc "D"d2 :|
A |"Bm"FBB fBB | "Bm"f2 a fef | "D"d2f "A"c2e | "Bm"dBA B2 A |
"Bm"FBB fBB | "F#m7"afe "D"dfa | "G"bag "D"fgf | "A"edc "D"d2 :|
